public/assets/images/telegram.svg

<svg xmlns="http://www.w3.org/2000/svg" width="32" height="32" fill="none" viewBox="0 0 32 32">
  <path
    fill="#039BE5"
    d="M16 32C24.8366 32 32 24.8366 32 16C32 7.16344 24.8366 0 16 0C7.16344 0 0 7.16344 0 16C0 24.8366 7.16344 32 16 32Z"
  />
  <path
    fill="#fff"
    d="M7.32132 15.6536L22.748 9.70561C23.464 9.44694 24.0893 9.88028 23.8573 10.9629L23.8586 10.9616L21.232 23.3363C21.0373 24.2136 20.516 24.4269 19.7867 24.0136L15.7867 21.0656L13.8573 22.9243C13.644 23.1376 13.464 23.3176 13.0507 23.3176L13.3347 19.2469L20.748 12.5496C21.0707 12.2656 20.676 12.1056 20.2507 12.3883L11.0893 18.1563L7.13998 16.9243C6.28265 16.6523 6.26398 16.0669 7.32132 15.6536Z"
  />
</svg>

<svg xmlns="http://www.w3.org/2000/svg" width="32" height="32" fill="none"><path fill="#039BE5" d="M16 32c8.837 0 16-7.163 16-16S24.837 0 16 0 0 7.163 0 16s7.163 16 16 16"/><path fill="#fff" d="m7.321 15.654 15.427-5.948c.716-.26 1.341.174 1.11 1.257v-.001l-2.626 12.374c-.195.878-.716 1.09-1.445.678l-4-2.948-1.93 1.858c-.213.214-.393.394-.806.394l.284-4.071 7.413-6.697c.323-.284-.072-.444-.497-.162l-9.162 5.768-3.949-1.232c-.857-.272-.876-.857.181-1.27"/></svg>
